X:1
T:Shine On
T:Shine On
T:Curtis S. Kauffman
T:Curtis S. Kauffman, 1900
T:Public Domain Courtesy of the Cyber Hymnal™
T:Public Domain Courtesy of the Cyber Hymnal™
C:Curtis S. Kauffman
Z:Public Domain
Z:Courtesy of the Cyber Hymnal™
%%score ( 1 2 ) 3
L:1/8
Q:1/4=87
M:2/4
K:Bb
V:1 treble 
V:2 treble 
V:3 bass 
V:1
 [B,D]/[CE]/ | [DF][B,D] [^CG][C=E] | [DF]3 [B,D]/[CE]/ | [DF][B,D] [^CG][C=E] | %4
w: 1.~See the|bright- ly shin- ing|star, As its|ra- diance beams a-|
w: 2.~It is|shin- ing still for|thee, With a|glo- ry fair to|
w: 3.~So to-|day that star a-|lone Is the|light to lead us|
 [DF]3 [B,D]/[CE]/ | [DF][DG] [DA][DB] | [EB] [EA]2 [EA]/[EG]/ | [CF][CG] [CE][CF] | %8
w: far, Guide the|feet of wea- ry|pil- grims To the|place where Je- sus|
w: see, As it|lead- eth ev- er|up- ward To the|pal- ace of the|
w: on To the|feet of Christ our|Sav- ior, He our|pro- phet, priest and|
 [B,D]3 [B,D]/[CE]/ | [DF][B,D] [^CG][C=E] | [DF]3 [B,D]/[CE]/ | [DF][B,D] [^CG][C=E] | %12
w: lay. Like a|bea- con from its|height, Burn- ing|bright- ly in the|
w: King. So we|fol- low thro’ the|night, Safe- ly|guid- ed by its|
w: king, As it|bright- ly burns a-|bove, Sen- try|of the King of|
 [DF]3 [B,D]/[CE]/ | [DF][DG] [DA][DB] | [EB] [EA]2 [EA]/[EG]/ | [EF][EG] [EA][Ec] | [DB]4 || %17
w: night, As the|wise men fol- lowed|on- ward, Safe- ly|guid- ed all the|way.|
w: light, While our|hearts re- spond with|glad- ness To the|song the an- gels|sing.|
w: love, While we|fol- low on- ward,|up- ward And His|prais- es sweet- ly|sing.|
"^Refrain" (z [DFB]) z ([DFB] z) ([DFB] z) [DFB] | d/c/B A(B z [EFA] z [EFA]) | %19
w: ||
w: * Shine on! shine|on! Beau- ti- ful star * *|
w: ||
 (z [FAc]) (z [FAc]) (z [FAc]) (z [FAc]) | e/d/c [FB][FAc] (z [FB] z [FB]) | %21
w: ||
w: |of light; Shine on! shine * *|
w: ||
 (z [DFB]) (z [DFB]) (z [DFB]) (z [DFB]) | d/c/B AB G4 ([=B,F] [CE]2) | [^CB] [CB]2 [CA]/[CG]/ | %24
w: |||
w: |* on! Cheer- ing the gloom- y *|* night; Shine on!|
w: |||
 [DF][FB] [Fd][Ge] | [Fd]2 [Ec]2 [DB]6 |] %26
w: ||
w: shine on! Send- ing|thy rays a-|
w: ||
V:2
 x | x4 | x4 | x4 | x4 | x4 | x4 | x4 | x4 | x4 | x4 | x4 | x4 | x4 | x4 | x4 | x4 || d2 d2 d2 d2 | %18
 [DF]2 [DF]2 c4 | e2 e2 e2 e2 | [FA]2 x3/2 d4 x/ | d2 d2 d2 d2 | [DF]2 [=B,F]2 [B,E] x6 | x4 | x4 | %25
 x10 |] %26
V:3
 [B,,F,]/[B,,F,]/ | [B,,B,][B,,F,] [B,,=E,][B,,G,] | [B,,F,]3 [B,,F,]/[B,,F,]/ | %3
 [B,,B,][B,,F,] [B,,=E,][B,,G,] | [B,,F,]3 [B,,F,]/[B,,F,]/ | [B,,B,][B,,B,] [B,,F,][B,,F,] | %6
 [C,F,] [C,F,]2 [F,C]/[F,B,]/ | [F,A,][F,B,] [F,A,][F,A,] | [B,,F,]3 [B,,F,]/[B,,F,]/ | %9
 [B,,B,][B,,F,] [B,,=E,][B,,G,] | [B,,F,]3 [B,,F,]/[B,,F,]/ | [B,,B,][B,,F,] [B,,=E,][B,,G,] | %12
 [B,,F,]3 [B,,F,]/[B,,F,]/ | [B,,B,][B,,B,] [B,,F,][B,,F,] | [C,F,] [C,F,]2 [F,C]/[F,B,]/ | %15
 [F,A,][F,B,] [F,C][F,A,] | [B,,F,B,]4 || [B,,B,]2 [F,,F,]2 [B,,B,]2 [F,,F,]2 | %18
 [B,,B,]2 [F,,F,]2 ([F,,F,][E,,E,][D,,D,][C,,C,]) | [F,,F,]2 [C,,C,]2 [F,,F,]2 [C,,C,]2 | %20
 [F,,F,][E,,E,] [D,,D,][C,,C,] ([B,,,B,,][A,,,A,,][F,,,G,,][E,,,F,,]) | %21
 [B,,B,]2 [F,,F,]2 [B,,B,]2 [F,,F,]2 | [B,,B,]2 [D,,D,]2 ([E,,E,][D,,D,] [C,,C,]2) x3 | %23
 [=E,G,] [E,G,]2 [E,A,]/[E,B,]/ | [F,B,][F,D] [F,B,][E,B,] | [F,B,]2 [F,A,]2 [B,,F,B,]6 |] %26

